X: 1
T:Glenallen, The
S:The Black Book
M:C
K:G
|:G2 DG EGDG| G2 BG AGEG| A2 EA FAEA | ABcd edBA|
G2 DG EGDG| G2 BG AGEG | cBcd efge | dBAB G2 G2 :|
|:g2 dg egdg | g2 bg ageg | a2 ea ageg| a2 bg agef|
g2 dg egde | g2 bg ageg | cBcd efge | dBAB G2 G2:|
